src/earn/assets/images/default-user-avatar.svg

<?xml version="1.0" encoding="UTF-8" standalone="no"?>
<svg width="141px" height="141px" viewBox="0 0 141 141" version="1.1" xmlns="http://www.w3.org/2000/svg" xmlns:xlink="http://www.w3.org/1999/xlink" xmlnsSketch="http://www.bohemiancoding.com/sketch/ns">
    <!-- Generator: Sketch 3.3.3 (12081) - http://www.bohemiancoding.com/sketch -->
    <title>ico-user-default</title>
    <desc>Created with Sketch.</desc>
    <g id="Assets" stroke="none" stroke-width="1" fill="none" fill-rule="evenodd" sketchType="MSPage">
        <g sketchType="MSArtboardGroup" transform="translate(-205.000000, -203.000000)">
            <g sketchType="MSLayerGroup" transform="translate(205.000000, 203.000000)">
                <path d="M 71 35 C 53.696167 35 39.666016 49.071306 39.666016 66.427734 L 39.666016 74.285156 C 39.666016 85.591585 45.68326 95.429465 54.621094 100.96875 C 43.2225 105.23886 32.013476 114.31633 26.892578 125.08008 C 38.886018 134.72766 54.141101 140.5 70.800781 140.5 C 87.593386 140.5 102.96165 134.6385 114.99805 124.85156 C 109.82841 114.18791 98.698873 105.20862 87.386719 100.96875 C 96.316719 95.429465 102.33398 85.591585 102.33398 74.285156 L 102.33398 66.427734 C 102.33398 49.071306 88.303833 35 71 35 Z" stroke="#A3A3AE" stroke-width="3" opacity="0.2" fill="#A3A3AE" sketchType="MSShapeGroup"></path>
            </g>
        </g>
    </g>
</svg>

<svg xmlns="http://www.w3.org/2000/svg" width="141" height="141"><path id="Assets" fill="#A3A3AE" fill-rule="evenodd" stroke="#A3A3AE" stroke-width="3" d="M71 35c-17.304 0-31.334 14.071-31.334 31.428v7.857c0 11.307 6.017 21.144 14.955 26.684-11.399 4.27-22.608 13.347-27.728 24.111C38.886 134.728 54.14 140.5 70.8 140.5c16.792 0 32.16-5.862 44.197-15.648-5.17-10.664-16.3-19.643-27.611-23.883 8.93-5.54 14.947-15.377 14.947-26.684v-7.857C102.334 49.07 88.304 35 71 35Z" opacity=".2"/></svg>
